X:1
T:House of Craig, The
T:House of Craig, The
T:Alexander Walker
C:Alexander Walker
L:1/8
M:2/2
K:D
V:1 treble 
V:1
 E | D2 (F/E/D) B,DA,C | D2 (F/E/D) ADBD | cDdF EDB,B | Adce fdd :| g | fdad fada | gebe gbeb | %8
 fdad fada | gbeg fddg | fdad fada | gebe gbeb | faef deBd | GeFa fdd || %14

